X: 305713
M: 6/8
L: 1/8
K: G
g |\
g2f e2a | a2f d2^c | B2B efe | d3 def |\
g2g f2f | e2^d fee | g2B dcA | G3 "^D.C."G2 |]
(3(A/B/c/) |\
d3 cBA | c2B AGF | GFG ABc | d3 cBA |\
e2d cBA | GFE DEF | AGG "^D.C."G2 |]


